public/assets/home/61070a430f976c13396eee00_Gradient Shades.svg

<svg width="377" height="108" viewBox="0 0 377 108" fill="none" xmlns="http://www.w3.org/2000/svg">
<g filter="url(#filter0_d)">
<path d="M4 14H156V34L4 26V14Z" fill="#1F2024"/>
</g>
<g filter="url(#filter1_d)">
<mask id="path-3-inside-1" fill="white">
<path fill-rule="evenodd" clip-rule="evenodd" d="M142.312 7.12849C142.757 3.07179 146.183 0 150.264 0H195.091H229.426H283.402H329.042H362.564C366.645 0 370.072 3.07179 370.517 7.12849L376.549 62.1724C377.833 73.8943 370.412 84.8129 359.04 87.9321L303.604 103.137C290.594 106.706 277.199 98.8527 273.959 85.7564L272.843 81.2475C270.974 73.6941 264.196 68.3883 256.414 68.3883V68.3883C248.633 68.3883 241.855 73.6941 239.986 81.2475L238.87 85.7564C235.63 98.8527 222.235 106.706 209.224 103.137L153.789 87.9321C142.417 84.8129 134.995 73.8943 136.28 62.1724L142.312 7.12849Z"/>
</mask>
<path fill-rule="evenodd" clip-rule="evenodd" d="M142.312 7.12849C142.757 3.07179 146.183 0 150.264 0H195.091H229.426H283.402H329.042H362.564C366.645 0 370.072 3.07179 370.517 7.12849L376.549 62.1724C377.833 73.8943 370.412 84.8129 359.04 87.9321L303.604 103.137C290.594 106.706 277.199 98.8527 273.959 85.7564L272.843 81.2475C270.974 73.6941 264.196 68.3883 256.414 68.3883V68.3883C248.633 68.3883 241.855 73.6941 239.986 81.2475L238.87 85.7564C235.63 98.8527 222.235 106.706 209.224 103.137L153.789 87.9321C142.417 84.8129 134.995 73.8943 136.28 62.1724L142.312 7.12849Z" fill="url(#paint0_linear)"/>
<path d="M142.312 7.12849L134.36 6.257L134.36 6.257L142.312 7.12849ZM370.517 7.12849L378.469 6.257L378.469 6.25698L370.517 7.12849ZM376.549 62.1724L368.596 63.0439L368.596 63.0439L376.549 62.1724ZM359.04 87.9321L361.156 95.6471L361.156 95.6471L359.04 87.9321ZM303.604 103.137L305.721 110.852L305.721 110.852L303.604 103.137ZM273.959 85.7564L281.724 83.835L281.724 83.835L273.959 85.7564ZM238.87 85.7564L246.636 87.6778L246.636 87.6778L238.87 85.7564ZM209.224 103.137L207.108 110.852L207.108 110.852L209.224 103.137ZM153.789 87.9321L151.673 95.6471L151.673 95.6471L153.789 87.9321ZM136.28 62.1724L128.327 61.3009L136.28 62.1724ZM239.986 81.2475L232.22 79.3261L239.986 81.2475ZM272.843 81.2475L280.609 79.3261L272.843 81.2475ZM150.264 -8C142.103 -8 135.249 -1.85642 134.36 6.257L150.264 7.99999L150.264 8V-8ZM195.091 -8H150.264V8H195.091V-8ZM195.091 8H229.426V-8H195.091V8ZM229.426 8H283.402V-8H229.426V8ZM283.402 8H329.042V-8H283.402V8ZM329.042 8H362.564V-8H329.042V8ZM362.564 8L362.564 8.00001L378.469 6.25698C377.58 -1.85641 370.726 -8 362.564 -8V8ZM362.564 7.99999L368.596 63.0439L384.501 61.3009L378.469 6.257L362.564 7.99999ZM368.596 63.0439C369.453 70.8585 364.505 78.1376 356.924 80.217L361.156 95.6471C376.319 91.4882 386.214 76.9301 384.501 61.3009L368.596 63.0439ZM356.924 80.217L301.488 95.4222L305.721 110.852L361.156 95.6471L356.924 80.217ZM301.488 95.4222C292.815 97.8013 283.885 92.5658 281.724 83.835L266.193 87.6778C270.513 105.14 288.373 115.61 305.721 110.852L301.488 95.4222ZM281.724 83.835L280.609 79.3261L265.077 83.169L266.193 87.6778L281.724 83.835ZM246.636 87.6778L247.751 83.169L232.22 79.3261L231.104 83.835L246.636 87.6778ZM207.108 110.852C224.456 115.61 242.315 105.14 246.636 87.6778L231.104 83.835C228.944 92.5658 220.014 97.8013 211.34 95.4222L207.108 110.852ZM151.673 95.6471L207.108 110.852L211.34 95.4222L155.905 80.217L151.673 95.6471ZM128.327 61.3009C126.615 76.9301 136.51 91.4882 151.673 95.6471L155.905 80.217C148.323 78.1376 143.376 70.8585 144.232 63.0439L128.327 61.3009ZM134.36 6.257L128.327 61.3009L144.232 63.0439L150.264 7.99999L134.36 6.257ZM256.414 60.3883C244.955 60.3883 234.972 68.2021 232.22 79.3261L247.751 83.169C248.737 79.186 252.311 76.3883 256.414 76.3883V60.3883ZM280.609 79.3261C277.856 68.2021 267.874 60.3883 256.414 60.3883V76.3883C260.517 76.3883 264.092 79.186 265.077 83.169L280.609 79.3261Z" fill="#1F2024" mask="url(#path-3-inside-1)"/>
</g>
<defs>
<filter id="filter0_d" x="0" y="14" width="156" height="24" filterUnits="userSpaceOnUse" color-interpolation-filters="sRGB">
<feFlood flood-opacity="0" result="BackgroundImageFix"/>
<feColorMatrix in="SourceAlpha" type="matrix" values="0 0 0 0 0 0 0 0 0 0 0 0 0 0 0 0 0 0 127 0" result="hardAlpha"/>
<feOffset dx="-4" dy="4"/>
<feColorMatrix type="matrix" values="0 0 0 0 0 0 0 0 0 0 0 0 0 0 0 0 0 0 0.25 0"/>
<feBlend mode="normal" in2="BackgroundImageFix" result="effect1_dropShadow"/>
<feBlend mode="normal" in="SourceGraphic" in2="effect1_dropShadow" result="shape"/>
</filter>
<filter id="filter1_d" x="132.136" y="0" width="244.557" height="107.999" filterUnits="userSpaceOnUse" color-interpolation-filters="sRGB">
<feFlood flood-opacity="0" result="BackgroundImageFix"/>
<feColorMatrix in="SourceAlpha" type="matrix" values="0 0 0 0 0 0 0 0 0 0 0 0 0 0 0 0 0 0 127 0" result="hardAlpha"/>
<feOffset dx="-4" dy="4"/>
<feColorMatrix type="matrix" values="0 0 0 0 0 0 0 0 0 0 0 0 0 0 0 0 0 0 0.25 0"/>
<feBlend mode="normal" in2="BackgroundImageFix" result="effect1_dropShadow"/>
<feBlend mode="normal" in="SourceGraphic" in2="effect1_dropShadow" result="shape"/>
</filter>
<linearGradient id="paint0_linear" x1="144.27" y1="6.90191" x2="376.112" y2="81.3432" gradientUnits="userSpaceOnUse">
<stop stop-color="#EBBFFF"/>
<stop offset="0.239265" stop-color="#FF002E"/>
<stop offset="0.515625" stop-color="#4EE5EF"/>
<stop offset="0.75" stop-color="#2400FF"/>
<stop offset="0.973958" stop-color="#CFC7FF"/>
</linearGradient>
</defs>
</svg>

<svg xmlns="http://www.w3.org/2000/svg" width="377" height="108" fill="none"><g filter="url(#a)"><path fill="#1F2024" d="M4 14h152v20L4 26V14Z"/></g><g filter="url(#b)"><mask id="d" fill="#fff"><path fill-rule="evenodd" d="M142.312 7.128A8 8 0 0 1 150.264 0h212.3a8 8 0 0 1 7.953 7.128l6.032 55.044c1.284 11.722-6.137 22.64-17.509 25.76l-55.436 15.205c-13.01 3.569-26.405-4.284-29.645-17.38l-1.116-4.51a16.924 16.924 0 0 0-32.857 0l-1.116 4.51c-3.24 13.096-16.635 20.949-29.646 17.38l-55.435-15.205c-11.372-3.12-18.794-14.038-17.509-25.76l6.032-55.044Z" clip-rule="evenodd"/></mask><path fill="url(#c)" fill-rule="evenodd" d="M142.312 7.128A8 8 0 0 1 150.264 0h212.3a8 8 0 0 1 7.953 7.128l6.032 55.044c1.284 11.722-6.137 22.64-17.509 25.76l-55.436 15.205c-13.01 3.569-26.405-4.284-29.645-17.38l-1.116-4.51a16.924 16.924 0 0 0-32.857 0l-1.116 4.51c-3.24 13.096-16.635 20.949-29.646 17.38l-55.435-15.205c-11.372-3.12-18.794-14.038-17.509-25.76l6.032-55.044Z" clip-rule="evenodd"/><path fill="#1F2024" d="m142.312 7.128-7.952-.871 7.952.871Zm228.205 0 7.952-.871-7.952.871Zm6.032 55.044-7.953.872 7.953-.872Zm-17.509 25.76 2.116 7.715-2.116-7.715Zm-55.436 15.205 2.117 7.715-2.117-7.715Zm-29.645-17.38 7.765-1.922-7.765 1.921Zm-35.089 0 7.766 1.92-7.766-1.92Zm-29.646 17.38-2.116 7.715 2.116-7.715Zm-55.435-15.205-2.116 7.715 2.116-7.715Zm-17.509-25.76-7.953-.871 7.953.871Zm103.706 19.076-7.766-1.922 7.766 1.922Zm32.857 0 7.766-1.922-7.766 1.922ZM150.264-8c-8.161 0-15.015 6.144-15.904 14.257L150.264 8V-8Zm44.827 0h-44.827V8h44.827V-8Zm0 16h34.335V-8h-34.335V8Zm34.335 0h53.976V-8h-53.976V8Zm53.976 0h45.64V-8h-45.64V8Zm45.64 0h33.522V-8h-33.522V8Zm33.522 0 15.905-1.743C377.58-1.856 370.726-8 362.564-8V8Zm0 0 6.032 55.044 15.905-1.743-6.032-55.044L362.564 8Zm6.032 55.044a16 16 0 0 1-11.672 17.173l4.232 15.43c15.163-4.159 25.058-18.717 23.345-34.346l-15.905 1.743Zm-11.672 17.173-55.436 15.205 4.233 15.43 55.435-15.205-4.232-15.43Zm-55.436 15.205c-8.673 2.38-17.603-2.856-19.764-11.587l-15.531 3.843c4.32 17.462 22.18 27.932 39.528 23.174l-4.233-15.43Zm-19.764-11.587-1.115-4.509-15.532 3.843 1.116 4.509 15.531-3.843Zm-35.088 3.843 1.115-4.509-15.531-3.843-1.116 4.509 15.532 3.843Zm-39.528 23.174c17.348 4.758 35.207-5.712 39.528-23.174l-15.532-3.843c-2.16 8.73-11.09 13.966-19.764 11.587l-4.232 15.43Zm-55.435-15.205 55.435 15.205 4.232-15.43-55.435-15.205-4.232 15.43Zm-23.346-34.346c-1.712 15.63 8.183 30.187 23.346 34.346l4.232-15.43a16 16 0 0 1-11.673-17.173L128.327 61.3Zm6.033-55.044-6.033 55.044 15.905 1.743L150.264 8 134.36 6.257Zm122.054 54.131a24.924 24.924 0 0 0-24.194 18.938l15.531 3.843a8.925 8.925 0 0 1 8.663-6.78v-16Zm24.195 18.938a24.925 24.925 0 0 0-24.195-18.938v16a8.924 8.924 0 0 1 8.663 6.781l15.532-3.843Z" mask="url(#d)"/></g><defs><filter id="a" width="156" height="24" x="0" y="14" color-interpolation-filters="sRGB" filterUnits="userSpaceOnUse"><feFlood flood-opacity="0" result="BackgroundImageFix"/><feColorMatrix in="SourceAlpha" result="hardAlpha" values="0 0 0 0 0 0 0 0 0 0 0 0 0 0 0 0 0 0 127 0"/><feOffset dx="-4" dy="4"/><feColorMatrix values="0 0 0 0 0 0 0 0 0 0 0 0 0 0 0 0 0 0 0.25 0"/><feBlend in2="BackgroundImageFix" result="effect1_dropShadow"/><feBlend in="SourceGraphic" in2="effect1_dropShadow" result="shape"/></filter><filter id="b" width="244.557" height="107.999" x="132.136" y="0" color-interpolation-filters="sRGB" filterUnits="userSpaceOnUse"><feFlood flood-opacity="0" result="BackgroundImageFix"/><feColorMatrix in="SourceAlpha" result="hardAlpha" values="0 0 0 0 0 0 0 0 0 0 0 0 0 0 0 0 0 0 127 0"/><feOffset dx="-4" dy="4"/><feColorMatrix values="0 0 0 0 0 0 0 0 0 0 0 0 0 0 0 0 0 0 0.25 0"/><feBlend in2="BackgroundImageFix" result="effect1_dropShadow"/><feBlend in="SourceGraphic" in2="effect1_dropShadow" result="shape"/></filter><linearGradient id="c" x1="144.27" x2="376.112" y1="6.902" y2="81.343" gradientUnits="userSpaceOnUse"><stop stop-color="#EBBFFF"/><stop offset=".239" stop-color="#FF002E"/><stop offset=".516" stop-color="#4EE5EF"/><stop offset=".75" stop-color="#2400FF"/><stop offset=".974" stop-color="#CFC7FF"/></linearGradient></defs></svg>
